X: 37239
T: Six Feet Away Or Six Feet Under
R: jig
M: 6/8
K: Adorian
D|:EGG GAe|dBG Bcd|eaa abg|fge dec|
B3 EGG|GAB cde|age edB|1 BAG A2D:|2 BAG Ace||
|:a3 egg|gfe d3|cBA BEE|EGG Ace|
a3 egg|gfe d2d|^cde dBG|1 BAG A=ce:|2 BAG A2B||
|:=cAA AGE|EFG F3|DEE EGB|dcB dcB|
cAA Ace|1 dBG A2B:|2 dBG Ace||
|:a3 bgg|baa bge|efg f3|def ece|
a3 bgg|baa age|ed^c dBG|1 BAG A=ce:|2 BAG A3||

